!!!OTL: Staendchen.
!!!OTL-incipit: GUT NACHT MEIN ALLERLIEBSTER SCHATZ
!!!ARE: Europa, Mitteleuropa, Deutschland, Mittelrhein
!!!SCT: Z1255
!!!TXL: @@DE
!!!YEM: Copyright 1995, estate of Helmut Schaffrath.
**kern	**text
*ICvox	*
*M4/4	*
*met(c)	*
*k[f#]	*
*G:	*
!LO:TX:a:t=Vom Mittelrhein.	!
{8dd/L	Gut
8ccJ	.
=1	=1
4b/	Nacht,
8dd/L	gut
8ccJ	.
4b/	Nacht,
4dd/	mein
=2	=2
8ee/	aller-
8dd/	.
8cc/	-liebſter
8b/	.
4cc/}	Schatʒ,
{8cc/	gute
8b/	.
=3	=3
4.a	Nacht,
8a	ſchlaf
4.dd/	wohl,
8cc/	mein
=4	=4
4b/	Kind!
4r	.
4r}	.
{8dd/L	gut
8ccJ	.
=5	=5
4b/	Nacht,
8dd/L	gut
8ccJ	.
4b/	Nacht,
4dd/	mein
=6	=6
8ee/	al-
8dd/	-ler-
8cc/	-liebſter
8b/	.
4cc/}	Schatʒ,
{8cc/L	gut
8bJ	.
=7	=7
4a	Nacht,
8a/L	ſchlaf
8eeJ	.
4dd/	wohl,
4f#	mein
=8	=8
2g	Kind!
4r}	.
{8gL	daß
8bJ	.
=9	=9
4.dd/	dich
8b/	die
4g	En-
4gg/	-gel
=10	=10
4.ee/	hü-
8dd/	-ten
4cc/}	all',
{8cc/L	die
8bJ	.
=11	=11
4.a	in
8g	dem
4f#	ſchö-
4ee/	-nen
=12	=12
4.dd/	Him-
8cc/	-mel
4b/}	ſind!
{8dd/L	gut
8ccJ	.
=13	=13
4b/	Nacht,
8dd/L	gut
8ccJ	.
4b/	Nacht,
4dd/	mein
=14	=14
8ee/L	lie-
8ddJ	.
8cc/L	-ber
8bJ	.
4cc/}	Schatʒ,
{8cc/L	ſchlaf
8bJ	.
=15	=15
4a	du
8a/L	von
8eeJ	.
4.dd/	nach-
8cc/	-ten
=16	=16
2b/	lind!
4r}	.
==	==
!!!AGN: Liebes - Lied
!!!ONB: ESAC (Essen Associative Code) Database: ZUCCAL
!!!AMT: simple quadruple
!!!AIN: vox
!!!EED: Helmut Schaffrath
!!!EEV: 1.0
!!!GTL: V. Lieder der Minne.
!!!URL-scan: https://www.digitale-sammlungen.de/de/view/bsb11160573?page=471
!!!ENC: Anna Maria Matuszewska
!!!EEV: 2025/02/06
*-	*-
